X:1
T:In meiner kranckheit
T:Conrad Hagius
T:Source : Lobgesänge---Ursell---C.Sutorius---1606. Editor : André Vierendeels (25/05/17).
T:Notes : Original clefs : C1, C2, C3, F4 Editorial accidentals above the staff Original note values have been halved Text Middle German (Ego dixi in dimidio dierum meorum) (Isaie 38) "Lobgesang des Königs Ezechiae" m 16 in B :  "B flat" notated as "D" in original print 
T:In meiner kranckheit
T:©
T:©
T:©
C:Conrad Hagius
Z:©
%%score [ 1 2 3 4 ]
L:1/8
Q:1/4=120
M:2/2
K:C
V:1 treble nm="Soprano" snm="S"
V:2 treble nm="Alto" snm="A"
V:3 treble-8 nm="Tenor" snm="T"
V:4 bass nm="Bass" snm="B"
V:1
"^1)" A4 A2 F2 | G2 A2 F2 E2 | D4 z4 | D4 A2 B2 | c2 A2 F2 G2 | A4 z4 | A4 c2 d2 | f2 e2 d2 ^c2 | %8
w: In mei- ner|kranck- heit schwe- rer|pein,|sprach ich bey|mir im Hertz- en|mein,|nu werd ich|fah- ren hin zur|
w: Hin ist das|ü- brig mei- ner|jar,|um- sunst frag|ich dar- nach für-|war.|Ich sprach bey|mir in mei- nem|
 d4 z4 | d4 e2 d2 | c2 B2 A2 ^G2 | A4 z4 | d4 c2 B2 | c2 A2 A2 G2 | F4 z4 | A4 _B2 A2 | %16
w: stund,|zu der stanck-|fau- len gru- ben|schlund,|der tod wirt|mich hin- nem- men|gschwind,|eh- mein tag|
w: sin:|nicht mehr werd|ich da kom- men|hin,|dasz ich den|Her- ren mei- nen|tag|in mei- nem|
 F2 G2 F2 E2 | D8 |] %18
w: halb ver- gang- en|sind.|
w: le- ben seh- en|mag.|
V:2
"^2)""^1)" F4 F2 C2 | E2 E2 D2 ^C2 | D4 z4 | D4 C2 B,2 | E2 F2 C2 E2 | E4 z4 | F4 E2 G2 | %7
w: In mei- ner|kranck- heit schwe- rer|pein,|sprach ich bey|mir im Hertz- en|mein,|nu werd ich|
w: Kein leut werd|mich mehr schaw- en|an,|die auff der|welt ihr wo- nung|han,|mein zeit da-|
 A2 c2 A2 A2 | ^F4 z4 | A4 A2 A2 | A2 E2 C2 E2 | E4 z4 | D4 G2 G2 | E2 F2 F2 E2 | F4 z4 | %15
w: fah- ren hin zur|stund,|zu der stanck-|fau- len gru- ben|schlund,|der tod wirt|mich hin- nem- men|gschwind,|
w: her ge- fa- ren|ist,|und hin- ge-|rückt in kurtz- er|frist:|wie ei- nes|hir- ten hüt- ten|klein,|
 F4 F2 F2 | C2 E2 D2 ^C2 | D8 |] %18
w: eh mein tag|halb ver- gang- en|sind.|
w: so sind da-|hin die ta- ge|mein.|
V:3
"^1)""^3)" d4 d2 A2 | c2 c2 A2 A2 | A4 z4 | A4 A2 d2 | c2 d2 A2 B2 | ^c4 z4 | d4 c2 B2 | %7
w: In mei- ner|kranck- heit schwe- rer|pein,|sprach ich bey|mir im Hertz- en|mein,|nu werd ich|
w: Mein le- ben|zwar on lan- ge|weil,|wirt ab- ge-|kürtzt in al- ler|heil,|ge- leich wie|
 c2 e2 f2 e2 | d4 z4 |"^-natural" f4 e2 A2 | A2 ^G2 A2 B2 | ^c4 z4 | B4 e2 d2 | c2 d2 c2 c2 | %14
w: fah- ren hin zur|stund,|zu der stanck-|fau- len gru- ben|schlund,|der tod wirt|mich hin nem- men|
w: sunst ein we- ber|gut,|geh- lich sein|werck ab- schnei- den|thut:|da ich meint,|dasz im an- fang|
 c4 z4 | d4 d2 d2 | A2 c2 A2 A2 | A8 |] %18
w: gschwind,|eh mein tag|halb ver- gang- en|sind.|
w: wer,|schneid mir Gott|ab durch kranck- heit|schwer.|
V:4
"^1)""^4)""^5)" D,4 D,2 F,2 | C,2 A,,2 D,2 A,,2 | D,4 z4 | D,4 F,2 G,2 | A,2 D,2 F,2 E,2 | %5
w: In mei- ner|kranck- heit schwe- rer|pein,|sprach ich bey|mir im Hertz- en|
w: Er hat von|morg' bisz an die|nacht|in ei- nem|tad mich ausz- ge-|
 A,,4 z4 | D,4 A,2 G,2 | F,2 C,2 D,2 A,2 | D,4 z4 | D,4 ^C,2 D,2 | A,,2 E,2 F,2 E,2 | A,,4 z4 | %12
w: mein,|nu werd ich|fah- ren hin zur|stund,|zu der stanck-|fau- len gru- ben|schlund,|
w: macht:|am a- bend|hofft das her- tze|mein,|denn mor- gen|solt es bes- ser|sein,|
 G,4 C,2 G,2 | A,2 D,2 F,2 C,2 | F,4 z4 | D,4 _B,,2 D,2 | F,2 C,2 D,2 A,,2 | D,8 |] %18
w: der tod wirt|mich hin nem- men|gschwind,|eh mein tag|halb ver- gang- en,|sind.|
w: er hat all|mein ge- bein für-|war|gleich wie ein|lew zu- ma- met|gar.|

